site/assets/svgs/solid/bars-progress.svg

<svg xmlns="http://www.w3.org/2000/svg" viewBox="0 0 512 512"><!--! Font Awesome Free 6.6.0 by @fontawesome - https://fontawesome.com License - https://fontawesome.com/license/free (Icons: CC BY 4.0, Fonts: SIL OFL 1.1, Code: MIT License) Copyright 2024 Fonticons, Inc. --><path d="M448 160l-128 0 0-32 128 0 0 32zM48 64C21.5 64 0 85.5 0 112l0 64c0 26.5 21.5 48 48 48l416 0c26.5 0 48-21.5 48-48l0-64c0-26.5-21.5-48-48-48L48 64zM448 352l0 32-256 0 0-32 256 0zM48 288c-26.5 0-48 21.5-48 48l0 64c0 26.5 21.5 48 48 48l416 0c26.5 0 48-21.5 48-48l0-64c0-26.5-21.5-48-48-48L48 288z"/></svg>

<svg xmlns="http://www.w3.org/2000/svg" viewBox="0 0 512 512"><!--! Font Awesome Free 6.2.1 by @fontawesome - https://fontawesome.com License - https://fontawesome.com/license/free (Icons: CC BY 4.0, Fonts: SIL OFL 1.1, Code: MIT License) Copyright 2022 Fonticons, Inc. --><path d="M448 160H320V128H448v32zM48 64C21.5 64 0 85.5 0 112v64c0 26.5 21.5 48 48 48H464c26.5 0 48-21.5 48-48V112c0-26.5-21.5-48-48-48H48zM448 352v32H192V352H448zM48 288c-26.5 0-48 21.5-48 48v64c0 26.5 21.5 48 48 48H464c26.5 0 48-21.5 48-48V336c0-26.5-21.5-48-48-48H48z"/></svg>
